img/laptop-solid.svg

<svg viewBox="0 0 640 512" xmlns="http://www.w3.org/2000/svg"><path d="m128 32c-35.3 0-64 28.7-64 64v256h64v-256h384v256h64v-256c0-35.3-28.7-64-64-64zm-108.8 352c-10.6 0-19.2 8.6-19.2 19.2 0 42.4 34.4 76.8 76.8 76.8h486.4c42.4 0 76.8-34.4 76.8-76.8 0-10.6-8.6-19.2-19.2-19.2z"/></svg>

<svg xmlns="http://www.w3.org/2000/svg" viewBox="0 0 640 512"><!--!Font Awesome Free 6.5.1 by @fontawesome - https://fontawesome.com License - https://fontawesome.com/license/free Copyright 2024 Fonticons, Inc.--><path d="M128 32C92.7 32 64 60.7 64 96V352h64V96H512V352h64V96c0-35.3-28.7-64-64-64H128zM19.2 384C8.6 384 0 392.6 0 403.2C0 445.6 34.4 480 76.8 480H563.2c42.4 0 76.8-34.4 76.8-76.8c0-10.6-8.6-19.2-19.2-19.2H19.2z"/></svg>
